lib/preview_tmp/nrk-logo-preview-nrk-2-on-light.svg

<svg width="55" height="16" viewBox="0 0 55 16" fill="none" xmlns="http://www.w3.org/2000/svg">
<path d="M0 15V1.00129H4.59339V15H0ZM10.8428 3.22926L13.4844 15H8.45737L5.30307 1.00129H8.12254C8.76907 0.992901 9.39641 1.22081 9.88691 1.64214C10.3782 2.0458 10.7158 2.60617 10.8428 3.22926ZM14.1744 15V1.00129H18.7678V15H14.1744ZM22.2372 6.3248C21.7422 6.32963 21.2552 6.20012 20.828 5.95015C20.4064 5.70649 20.0563 5.35631 19.8127 4.93472C19.5624 4.50741 19.4329 4.02024 19.4378 3.52506C19.4321 3.03289 19.5618 2.54863 19.8127 2.12519C20.0589 1.70818 20.4086 1.3618 20.828 1.11963C21.2553 0.86994 21.7423 0.740454 22.2372 0.744968C22.7292 0.739669 23.2133 0.869271 23.6369 1.11963C24.0521 1.36392 24.3981 1.71001 24.6424 2.12519C24.893 2.54875 25.0226 3.03293 25.0172 3.52506C25.0218 4.0202 24.8923 4.50729 24.6424 4.93472C24.4007 5.35446 24.0542 5.70435 23.6369 5.95015C23.2133 6.20099 22.7289 6.33063 22.2366 6.3248H22.2372ZM25.7269 15V1.00129H30.3207V15H25.7269ZM36.136 8.65129C36.1489 8.66487 36.2475 8.82588 36.4317 9.13434C36.6159 9.44279 36.8558 9.83715 37.1513 10.3174C37.447 10.7973 37.759 11.3067 38.0874 11.8454C38.4157 12.384 38.7247 12.8934 39.0143 13.3734C39.3028 13.8534 39.6313 14.3956 40 15H34.9531C34.6375 14.4874 34.3515 14.0241 34.0952 13.61C33.8389 13.196 33.5665 12.749 33.2778 12.2693C32.9884 11.7899 32.7024 11.3233 32.4196 10.8694C32.1368 10.4155 31.8938 10.0179 31.6905 9.67659C31.4863 9.33505 31.3449 9.105 31.2663 8.98648C31.0713 8.69237 30.9559 8.3527 30.9315 8.00066C30.951 7.66278 31.0597 7.33616 31.2466 7.05398C31.3254 6.92254 31.47 6.68919 31.6803 6.35401C31.8906 6.01883 32.137 5.62125 32.4196 5.1612C32.7021 4.70115 32.9882 4.23122 33.2778 3.75146C33.5674 3.27169 33.8398 2.82146 34.0952 2.40084C34.3519 1.98066 34.6379 1.51404 34.9531 1.00097H40L36.0962 7.36943C35.9754 7.55851 35.9073 7.77642 35.8991 8.00066C35.9121 8.23606 35.9942 8.46239 36.1353 8.65129H36.136Z" fill="#0A2343"/>
<path d="M47.9681 13.3066C48.2802 13.0388 48.6012 12.7606 48.9403 12.459C49.4133 12.0384 49.8897 11.5818 50.3694 11.089C50.849 10.5962 51.3057 10.0837 51.7393 9.55145C52.1605 9.03642 52.5458 8.49306 52.8925 7.92522C53.2161 7.39741 53.4806 6.83551 53.681 6.24972C53.8672 5.71059 53.9637 5.14459 53.9668 4.57422C53.9762 4.04155 53.8686 3.51331 53.6514 3.02683C53.4365 2.56738 53.1198 2.16292 52.7253 1.84413C52.2737 1.48649 51.7539 1.22488 51.1976 1.07536C50.5138 0.88846 49.8071 0.798877 49.0983 0.809249C48.639 0.808034 48.1806 0.847608 47.7283 0.927515C47.298 1.00357 46.8756 1.11904 46.4664 1.27247C46.0764 1.41865 45.6977 1.59324 45.3333 1.79484L45.5893 3.50976C45.9015 3.3005 46.2354 3.12538 46.585 2.98741C46.9648 2.83497 47.3573 2.71624 47.7579 2.63259C48.1662 2.54705 48.5823 2.50411 48.9994 2.50446C49.4365 2.49557 49.8723 2.55544 50.2908 2.68188C50.6241 2.78389 50.9304 2.95898 51.1874 3.19439C51.419 3.41034 51.5978 3.67678 51.7098 3.973C51.8245 4.28536 51.8814 4.61599 51.8777 4.94873C51.8709 5.50723 51.7571 6.05927 51.5426 6.57496C51.2931 7.1806 50.9757 7.75595 50.5964 8.2899C50.1546 8.91724 49.674 9.51633 49.1574 10.0837C48.6055 10.6947 48.0043 11.3058 47.3538 11.9169C46.7033 12.5279 46.0298 13.1489 45.3333 13.7796L45.5893 15.0018H54.1248L54.3613 13.3066H47.9681Z" fill="#AB0058"/>
</svg>

<svg xmlns="http://www.w3.org/2000/svg" viewBox="0 0 55 16"><path fill="#0A2343" d="M0 15V1.001h4.593V15H0ZM10.843 3.23 13.484 15H8.457L5.303 1.001h2.82a2.655 2.655 0 0 1 1.764.641c.491.404.829.964.956 1.587ZM14.174 15V1.001h4.594V15h-4.594Zm8.063-8.675a2.737 2.737 0 0 1-1.409-.375 2.778 2.778 0 0 1-1.015-1.015 2.735 2.735 0 0 1-.375-1.41 2.685 2.685 0 0 1 .375-1.4 2.812 2.812 0 0 1 3.824-1.005c.415.244.761.59 1.005 1.005.251.424.38.908.375 1.4.005.495-.125.982-.375 1.41a2.8 2.8 0 0 1-1.005 1.015c-.424.251-.908.38-1.4.375ZM25.727 15V1.001h4.594V15h-4.594Zm10.409-6.349c.013.014.111.175.296.483.184.309.424.703.72 1.183a377.481 377.481 0 0 1 1.862 3.056c.289.48.617 1.023.986 1.627h-5.047l-.858-1.39c-.256-.414-.529-.861-.817-1.34-.29-.48-.576-.947-.858-1.4a71.104 71.104 0 0 1-.73-1.193 21.1 21.1 0 0 0-.424-.69A2.04 2.04 0 0 1 30.932 8c.019-.338.128-.665.315-.947.078-.131.223-.365.433-.7a216.97 216.97 0 0 0 1.598-2.603l.817-1.35.858-1.4H40l-3.904 6.368c-.12.19-.189.407-.197.632.013.235.095.461.236.65h.001Z"/><path fill="#AB0058" d="M47.968 13.307c.312-.268.633-.546.972-.848.473-.42.95-.877 1.43-1.37.479-.493.936-1.005 1.37-1.538.42-.515.806-1.058 1.152-1.626a8.42 8.42 0 0 0 .789-1.675 5.22 5.22 0 0 0 .286-1.676 3.638 3.638 0 0 0-.316-1.547 3.34 3.34 0 0 0-.926-1.183 4.229 4.229 0 0 0-1.527-.769 7.544 7.544 0 0 0-2.1-.266 7.756 7.756 0 0 0-1.37.119c-.43.076-.852.191-1.262.344-.39.147-.768.321-1.133.523l.256 1.715a5.25 5.25 0 0 1 .996-.523c.38-.152.772-.27 1.173-.354a6.03 6.03 0 0 1 1.241-.129c.438-.008.873.051 1.292.178.333.102.64.277.896.512.232.216.41.483.523.779.114.312.171.643.168.976a4.373 4.373 0 0 1-.335 1.626 8.652 8.652 0 0 1-.947 1.715 18.405 18.405 0 0 1-1.439 1.794 31.397 31.397 0 0 1-1.803 1.833 150.76 150.76 0 0 1-2.02 1.863l.255 1.222h8.536l.236-1.695h-6.393Z"/></svg>
